X:47
T:Nem zörög a haraszt, ha a szél nem fújja
M:4/4
L:1/4
K:D
D/D/E/E/ F A | GGFE | D2 D z |
A/A/B/B/ c e | d d c B | A2 A z |
d/c/d/e/ f<d | c2 B2 | A/^G/A/^A/ B<=G | F2 E2|
D/D/E/E/ F A | GGFE | D2 D z |

